img/stops-2.svg

<svg width="44" height="41" viewBox="0 0 44 41" fill="none" xmlns="http://www.w3.org/2000/svg">
<path d="M19.25 12.2074C19.1125 12.2075 18.9767 12.1746 18.8528 12.1111C18.7289 12.0476 18.6201 11.9552 18.5343 11.8408L11.2015 2.08517C10.8845 1.66425 10.949 1.05053 11.3438 0.71394C11.7399 0.377352 12.3159 0.445219 12.6329 0.866137L19.9658 10.6219C20.2827 11.0428 20.2183 11.6565 19.8221 11.9931C19.6601 12.1323 19.4582 12.2079 19.25 12.2074ZM23.8343 12.2074C23.6966 12.2075 23.5607 12.1746 23.4365 12.1111C23.3124 12.0477 23.2033 11.9553 23.1173 11.8408L15.7844 2.08517C15.4674 1.66425 15.5319 1.05053 15.928 0.71394C16.3228 0.377352 16.9002 0.445219 17.2158 0.866137L24.5487 10.6219C24.8656 11.0428 24.8012 11.6565 24.4064 11.9931C24.2442 12.1318 24.0424 12.2074 23.8343 12.2074Z" fill="#444444"/>
<path d="M15.583 11.2308H26.5832V14.1576H15.583V11.2308Z" fill="#A52727"/>
<path d="M41.25 35.6214H2.75005C1.234 35.6214 0 34.3095 0 32.6946V16.11C0 14.4958 1.234 13.1831 2.75005 13.1831H41.25C42.766 13.1831 44 14.4958 44 16.11V32.6947C44 34.3095 42.766 35.6214 41.25 35.6214Z" fill="#E30613"/>
<path d="M43.9999 17.085H4.58288C4.07661 17.085 3.66711 17.5215 3.66711 18.0603V25.8661C3.66705 25.9941 3.69069 26.1208 3.73668 26.2391C3.78268 26.3574 3.85013 26.4649 3.93518 26.5554C4.02023 26.6459 4.12122 26.7177 4.23235 26.7667C4.34349 26.8156 4.4626 26.8408 4.58288 26.8407H43.9999V17.085Z" fill="#97D3EE"/>
<path d="M8.24998 30.7435C5.72286 30.7435 3.66711 32.9315 3.66711 35.621C3.66711 38.3121 5.72286 40.5 8.24998 40.5C10.7771 40.5 12.8329 38.3121 12.8329 35.621C12.8329 32.9315 10.7771 30.7435 8.24998 30.7435ZM33.917 30.7435C31.39 30.7435 29.3328 32.9315 29.3328 35.621C29.3328 38.3121 31.39 40.5 33.917 40.5C36.4441 40.5 38.4999 38.3121 38.4999 35.621C38.4999 32.9315 36.4441 30.7435 33.917 30.7435Z" fill="#444444"/>
<path d="M8.89866 34.9329C9.25582 35.3129 9.25582 35.9303 8.89866 36.3119C8.81354 36.4026 8.71245 36.4746 8.60117 36.5237C8.48989 36.5728 8.3706 36.5981 8.25013 36.5981C8.12967 36.5981 8.01038 36.5728 7.8991 36.5237C7.78782 36.4746 7.68673 36.4026 7.60161 36.3119C7.24445 35.9303 7.24445 35.3129 7.60161 34.9329C7.68673 34.8422 7.78782 34.7702 7.8991 34.7211C8.01038 34.672 8.12967 34.6467 8.25013 34.6467C8.3706 34.6467 8.48989 34.672 8.60117 34.7211C8.71245 34.7702 8.81354 34.8422 8.89866 34.9329Z" fill="#F5F7FA"/>
<path d="M15.583 26.8447H26.5832V35.6207H15.583V26.8447Z" fill="#A52727"/>
<path d="M34.5643 34.9329C34.9229 35.3129 34.9229 35.9303 34.5643 36.3119C34.2072 36.6935 33.6272 36.6935 33.2687 36.3119C32.9101 35.9303 32.9101 35.3129 33.2687 34.9329C33.6272 34.5513 34.2072 34.5513 34.5643 34.9329Z" fill="#F5F7FA"/>
<path d="M20.625 17.084H21.5421V35.6201H20.625V17.084Z" fill="#A52727"/>
<path d="M8.19098 26.8448L8.1615 17.0849L9.99569 17.0791L10.0239 26.8377L8.19098 26.8448ZM33.0149 26.8448L32.9853 17.0849L34.8195 17.0791L34.8477 26.8377L33.0149 26.8448Z" fill="#6CC6E4"/>
<path d="M15.583 17.0854H26.5829V35.6214H27.5V16.11H14.6671V35.6214H15.583V17.0854ZM44 28.7932H41.25C40.7438 28.7932 40.3329 29.2291 40.3329 29.7679C40.3329 30.3066 40.7438 30.7439 41.25 30.7439H44V28.7932Z" fill="#A52727"/>
</svg>

<svg xmlns="http://www.w3.org/2000/svg" width="44" height="41" fill="none"><path fill="#444" d="M19.25 12.207a.869.869 0 0 1-.397-.096.928.928 0 0 1-.319-.27l-7.332-9.756a1.018 1.018 0 0 1 .142-1.371.88.88 0 0 1 1.289.152l7.333 9.756c.317.42.252 1.034-.144 1.371a.874.874 0 0 1-.572.214Zm4.584 0a.871.871 0 0 1-.398-.096.929.929 0 0 1-.319-.27l-7.333-9.756a1.017 1.017 0 0 1 .144-1.371.879.879 0 0 1 1.288.152l7.333 9.756c.317.42.252 1.034-.143 1.371a.88.88 0 0 1-.572.214Z"/><path fill="#A52727" d="M15.583 11.23h11v2.928h-11V11.23Z"/><path fill="#E30613" d="M41.25 35.621H2.75C1.234 35.621 0 34.31 0 32.695V16.11c0-1.614 1.234-2.927 2.75-2.927h38.5c1.516 0 2.75 1.313 2.75 2.927v16.585c0 1.614-1.234 2.926-2.75 2.926Z"/><path fill="#97D3EE" d="M44 17.085H4.583c-.506 0-.916.436-.916.975v7.806c0 .128.024.255.07.373a.98.98 0 0 0 .198.316c.085.09.186.163.297.212.111.049.23.074.35.074H44v-9.756Z"/><path fill="#444" d="M8.25 30.744c-2.527 0-4.583 2.188-4.583 4.877 0 2.691 2.056 4.879 4.583 4.879s4.583-2.188 4.583-4.879c0-2.69-2.056-4.878-4.583-4.878Zm25.667 0c-2.527 0-4.584 2.188-4.584 4.877 0 2.691 2.057 4.879 4.584 4.879 2.527 0 4.583-2.188 4.583-4.879 0-2.69-2.056-4.878-4.583-4.878Z"/><path fill="#F5F7FA" d="M8.899 34.933c.357.38.357.997 0 1.379a.915.915 0 0 1-.298.212.869.869 0 0 1-1-.212 1.021 1.021 0 0 1 0-1.38.915.915 0 0 1 .298-.21.869.869 0 0 1 1 .21Z"/><path fill="#A52727" d="M15.583 26.845h11v8.776h-11v-8.776Z"/><path fill="#F5F7FA" d="M34.564 34.933c.359.38.359.997 0 1.379a.876.876 0 0 1-1.295 0 1.018 1.018 0 0 1 0-1.38.876.876 0 0 1 1.295 0Z"/><path fill="#A52727" d="M20.625 17.084h.917V35.62h-.917V17.084Z"/><path fill="#6CC6E4" d="m8.191 26.845-.03-9.76 1.835-.006.028 9.759-1.833.007Zm24.824 0-.03-9.76 1.834-.006.029 9.759-1.833.007Z"/><path fill="#A52727" d="M15.583 17.085h11v18.536h.917V16.11H14.667v19.511h.916V17.085ZM44 28.793h-2.75c-.506 0-.917.436-.917.975 0 .539.41.976.917.976H44v-1.95Z"/></svg>
